images/wyvern-logo.svg

<svg height="250" viewBox="0 0 250 250" width="250" xmlns="http://www.w3.org/2000/svg"><path d="m139.160156 82.460938c-6.238281-.753907-9.210937-3.582032-9.210937-3.582032 2.722656-5.945312-8.445313-20.089844-8.445313-20.089844s20.382813 13.125 17.65625 23.671876m86.136719 94.59375s24.703125-12.050782 24.703125-38.417969c-3.996094 12.722656-15.257812 17.15625-15.257812 17.15625s16.4375-23.683594 4.542968-57.917969c-14.65625-43.082031-60.957031-67.054688-107.972656-67.289062 34.867188 3.597656 52.714844 37.746093 52.714844 37.746093s-.957032-10.925781-5.175782-20.464843c38 14.058593 52.402344 52.996093 48.625 83.320312-4.464843 35.867188-32.5 70.066406-63.609374 80.867188 0 0 2.363281-5.300782 2.09375-12.332032-37.003907 25.835938-79.15625-.988281-80.335938-1.675781-25.234375-14.632813-32.703125-42.492187-32.703125-42.492187 12.351563 24.777343 42.601563 25.082031 42.601563 25.082031s-1.476563-22.753907 58.753906-4.640625c0 0 12.144531-2.082032 19.25-6.574219 1.375-.867187.027344-4.925781 1.269531-5.890625 1.351563-1.058594 2.59375-2.167969 3.636719-3.316406 1.011718-1.113282-1.371094-4.757813-.644532-5.8125 1.558594-2.269532 2.320313-4.332032 1.734376-5.902344-3.453126-9.207031-3.632813-14.566406-10.714844-14.566406 6.71875 2.847656.179687 12.722656.179687 12.722656s-1.453125 5.191406-11.367187 6.996094c-.792969.144531-9.011719-1.246094-11.515625-4.820313-1.808594-2.578125 1.90625-6.695312 3.449219-7.699219-3.269532.167969-9.625 5.609376-9.625 5.609376s-1.363282 6.863281.671874 10.710937c-69.507812 0-90.9375-72.027344-50.253906-90.773437-11.261718 13.726562-5.992187 27.789062-5.992187 27.789062s26.695312-18.082031 53.574219 17.742188c1.316406 1.75 6.359374 7.699218 1.457031 11.714843 3.449219.335938 18.394531-14.03125 17.433593-28.121093-1.753906-25.6875-13.511718-39.304688-28.449218-49.386719-21.9375-14.808594-53.320313-19.597657-67.3125-46.1875 1.359375 19.835937 19.308594 37.214843 19.308594 37.214843s-27.332032 6.277344-46.585938 21.847657c13.167969-7.28125 31.058594-1.257813 31.058594-1.257813s-33.238282 4.855469-46.402344 19.503906c8.445312-4.144531 25.96875-2.929687 25.96875-2.929687s-27.515625 7.28125-39.503906 30.128906c13.441406-10.210937 29.96875-11.046875 29.96875-11.046875s-26.425782 11.046875-34.871094 39.925782c6.683594-10.246094 23.15625-16.492188 23.15625-16.492188s-17.433594 15.738281-15.992188 43.761719c1.890626-3.0625 6.988282-3.394531 6.988282-3.394531s5.726562 66 81.515625 87.707031c29.1875 8.359375 57.832031 4.179687 79.984375-3.929688-12.105469-1.441406-18.460938-5.628906-18.460938-5.628906 9.277344-.5 37.460938-1.839844 54.621094-12.382813-8.445312.875-18.796875-1.382812-24.109375-3.515624 21.25-3.769532 41.5-14.144532 49.582031-21.59375-9.535156 3.011718-25.0625 3.261718-25.0625 3.261718s24.519532-8.871094 35.414063-30.632812c-9.808594 6.359375-22.339844 6.277344-22.339844 6.277344" fill="#e22f32"/></svg>

<svg xmlns="http://www.w3.org/2000/svg" xmlns:xlink="http://www.w3.org/1999/xlink" width="250px" height="250px" viewBox="0 0 250 250" version="1.1">
<g id="surface1">
<path style=" stroke:none;fill-rule:nonzero;fill:rgb(88.627452%,18.431373%,19.607843%);fill-opacity:1;" d="M 139.160156 82.460938 C 132.921875 81.707031 129.949219 78.878906 129.949219 78.878906 C 132.671875 72.933594 121.503906 58.789062 121.503906 58.789062 C 121.503906 58.789062 141.886719 71.914062 139.160156 82.460938 M 225.296875 177.054688 C 225.296875 177.054688 250 165.003906 250 138.636719 C 246.003906 151.359375 234.742188 155.792969 234.742188 155.792969 C 234.742188 155.792969 251.179688 132.109375 239.285156 97.875 C 224.628906 54.792969 178.328125 30.820312 131.3125 30.585938 C 166.179688 34.183594 184.027344 68.332031 184.027344 68.332031 C 184.027344 68.332031 183.070312 57.40625 178.851562 47.867188 C 216.851562 61.925781 231.253906 100.863281 227.476562 131.1875 C 223.011719 167.054688 194.976562 201.253906 163.867188 212.054688 C 163.867188 212.054688 166.230469 206.753906 165.960938 199.722656 C 128.957031 225.558594 86.804688 198.734375 85.625 198.046875 C 60.390625 183.414062 52.921875 155.554688 52.921875 155.554688 C 65.273438 180.332031 95.523438 180.636719 95.523438 180.636719 C 95.523438 180.636719 94.046875 157.882812 154.277344 175.996094 C 154.277344 175.996094 166.421875 173.914062 173.527344 169.421875 C 174.902344 168.554688 173.554688 164.496094 174.796875 163.53125 C 176.148438 162.472656 177.390625 161.363281 178.433594 160.214844 C 179.445312 159.101562 177.0625 155.457031 177.789062 154.402344 C 179.347656 152.132812 180.109375 150.070312 179.523438 148.5 C 176.070312 139.292969 175.890625 133.933594 168.808594 133.933594 C 175.527344 136.78125 168.988281 146.65625 168.988281 146.65625 C 168.988281 146.65625 167.535156 151.847656 157.621094 153.652344 C 156.828125 153.796875 148.609375 152.40625 146.105469 148.832031 C 144.296875 146.253906 148.011719 142.136719 149.554688 141.132812 C 146.285156 141.300781 139.929688 146.742188 139.929688 146.742188 C 139.929688 146.742188 138.566406 153.605469 140.601562 157.453125 C 71.09375 157.453125 49.664062 85.425781 90.347656 66.679688 C 79.085938 80.40625 84.355469 94.46875 84.355469 94.46875 C 84.355469 94.46875 111.050781 76.386719 137.929688 112.210938 C 139.246094 113.960938 144.289062 119.910156 139.386719 123.925781 C 142.835938 124.261719 157.78125 109.894531 156.820312 95.804688 C 155.066406 70.117188 143.308594 56.5 128.371094 46.417969 C 106.433594 31.609375 75.050781 26.820312 61.058594 0.230469 C 62.417969 20.066406 80.367188 37.445312 80.367188 37.445312 C 80.367188 37.445312 53.035156 43.722656 33.78125 59.292969 C 46.949219 52.011719 64.839844 58.035156 64.839844 58.035156 C 64.839844 58.035156 31.601562 62.890625 18.4375 77.539062 C 26.882812 73.394531 44.40625 74.609375 44.40625 74.609375 C 44.40625 74.609375 16.890625 81.890625 4.902344 104.738281 C 18.34375 94.527344 34.871094 93.691406 34.871094 93.691406 C 34.871094 93.691406 8.445312 104.738281 0 133.617188 C 6.683594 123.371094 23.15625 117.125 23.15625 117.125 C 23.15625 117.125 5.722656 132.863281 7.164062 160.886719 C 9.054688 157.824219 14.152344 157.492188 14.152344 157.492188 C 14.152344 157.492188 19.878906 223.492188 95.667969 245.199219 C 124.855469 253.558594 153.5 249.378906 175.652344 241.269531 C 163.546875 239.828125 157.191406 235.640625 157.191406 235.640625 C 166.46875 235.140625 194.652344 233.800781 211.8125 223.257812 C 203.367188 224.132812 193.015625 221.875 187.703125 219.742188 C 208.953125 215.972656 229.203125 205.597656 237.285156 198.148438 C 227.75 201.160156 212.222656 201.410156 212.222656 201.410156 C 212.222656 201.410156 236.742188 192.539062 247.636719 170.777344 C 237.828125 177.136719 225.296875 177.054688 225.296875 177.054688 "/>
</g>
</svg>
